X:211
T:The Commodore
C:Bill McComiskey and Brendan Mulvihill
S:Théo Baumard
R:reel
M:4/4
L:1/8
K:D
a3f g3e | fedf ecAb | ad3 bdad | cdef g2fg |
agfa gfeg | fedf ecAB | (3cBA eA fAef |1 gece defg :|2 gece d2AG |:
FAde =f2d=f | e=c3 GAEG | FDD2  FAde | ceag fdAG |
FAde =f2d=f | e=ccB cdeg | aged (3cBA ef |1 gece d2AG :|2 gece defg |]
